<?xml version="1.0" encoding="UTF-8"?>
<map version="1.10" tiledversion="1.12.0" orientation="orthogonal" renderorder="right-down" width="40" height="40" tilewidth="8" tileheight="8" infinite="0" nextlayerid="7" nextobjectid="26">
 <tileset firstgid="1" name="gb-tileset" tilewidth="8" tileheight="8" tilecount="16384" columns="128">
  <image source="../art/gb-tileset.png" width="1024" height="1024"/>
 </tileset>
 <layer id="1" name="base" width="40" height="40">
  <data encoding="csv">
301,302,303,304,305,306,307,308,301,302,303,304,305,306,307,308,301,302,303,304,305,306,307,308,301,302,303,304,305,306,307,308,301,302,303,304,305,306,307,308,
429,430,431,432,433,434,435,436,429,430,431,432,433,434,435,436,429,430,431,432,433,434,435,436,429,430,431,432,433,434,435,436,429,430,431,432,433,434,435,436,
557,558,559,560,561,562,563,564,557,558,559,560,561,562,563,564,557,558,559,560,561,562,563,564,557,558,559,560,561,562,563,564,557,558,559,560,561,562,563,564,
685,686,687,688,689,690,691,692,685,686,687,688,689,690,691,692,685,686,687,688,689,690,691,692,685,686,687,688,689,690,691,692,685,686,687,688,689,690,691,692,
813,814,815,816,817,818,819,820,813,814,815,816,817,818,819,820,813,814,815,816,817,818,819,820,813,814,815,816,817,818,819,820,813,814,815,816,817,818,819,820,
941,942,943,944,945,946,947,948,941,942,943,944,945,946,947,948,941,942,943,944,945,946,947,948,941,942,943,944,945,946,947,948,941,942,943,944,945,946,947,948,
1069,1070,1071,1072,1073,1074,1075,1076,1069,1070,1071,1072,1073,1074,1075,1076,1069,1070,1071,1072,1073,1074,1075,1076,1069,1070,1071,1072,1073,1074,1075,1076,1069,1070,1071,1072,1073,1074,1075,1076,
1197,1198,1199,1200,1201,1202,1203,1204,1197,1198,1199,1200,1201,1202,1203,1204,1197,1198,1199,1200,1201,1202,1203,1204,1197,1198,1199,1200,1201,1202,1203,1204,1197,1198,1199,1200,1201,1202,1203,1204,
301,302,303,304,305,306,307,308,301,302,303,304,305,306,307,308,301,302,303,304,305,306,307,308,301,302,303,304,305,306,307,308,301,302,303,304,305,306,307,308,
429,430,431,432,433,434,435,436,429,430,431,432,433,434,435,436,429,430,431,432,433,434,435,436,429,430,431,432,433,434,435,436,429,430,431,432,433,434,435,436,
557,558,559,560,561,562,563,564,557,558,559,560,561,562,563,564,557,558,559,560,561,562,563,564,557,558,559,560,561,562,563,564,557,558,559,560,561,562,563,564,
685,686,687,688,689,690,691,692,685,686,687,688,689,690,691,692,685,686,687,688,689,690,691,692,685,686,687,688,689,690,691,692,685,686,687,688,689,690,691,692,
813,814,815,816,817,818,819,820,813,814,815,816,817,818,819,820,813,814,815,816,817,818,819,820,813,814,815,816,817,818,819,820,813,814,815,816,817,818,819,820,
941,942,943,944,945,946,947,948,941,942,943,944,945,946,947,948,941,942,943,944,945,946,947,948,941,942,943,944,945,946,947,948,941,942,943,944,945,946,947,948,
1069,1070,1071,1072,1073,1074,1075,1076,1069,1070,1071,1072,1073,1074,1075,1076,1069,1070,1071,1072,1073,1074,1075,1076,1069,1070,1071,1072,1073,1074,1075,1076,1069,1070,1071,1072,1073,1074,1075,1076,
1197,1198,1199,1200,1201,1202,1203,1204,1197,1198,1199,1200,1201,1202,1203,1204,1197,1198,1199,1200,1201,1202,1203,1204,1197,1198,1199,1200,1201,1202,1203,1204,1197,1198,1199,1200,1201,1202,1203,1204,
301,302,303,304,305,306,307,308,301,302,303,304,305,306,307,308,301,302,303,304,305,306,307,308,301,302,303,304,305,306,307,308,301,302,303,304,305,306,307,308,
429,430,431,432,433,434,435,436,429,430,431,432,433,434,435,436,429,430,431,432,433,434,435,436,429,430,431,432,433,434,435,436,429,430,431,432,433,434,435,436,
557,558,559,560,561,562,563,564,557,558,559,560,561,562,563,564,557,558,559,560,561,562,563,564,557,558,559,560,561,562,563,564,557,558,559,560,561,562,563,564,
685,686,687,688,689,690,691,692,685,686,687,688,689,690,691,692,685,686,687,688,689,690,691,692,685,686,687,688,689,690,691,692,685,686,687,688,689,690,691,692,
813,814,815,816,817,818,819,820,813,814,815,816,817,818,819,820,813,814,815,816,817,818,819,820,813,814,815,816,817,818,819,820,813,814,815,816,817,818,819,820,
941,942,943,944,945,946,947,948,941,942,943,944,945,946,947,948,941,942,943,944,945,946,947,948,941,942,943,944,945,946,947,948,941,942,943,944,945,946,947,948,
1069,1070,1071,1072,1073,1074,1075,1076,1069,1070,1071,1072,1073,1074,1075,1076,1069,1070,1071,1072,1073,1074,1075,1076,1069,1070,1071,1072,1073,1074,1075,1076,1069,1070,1071,1072,1073,1074,1075,1076,
1197,1198,1199,1200,1201,1202,1203,1204,1197,1198,1199,1200,1201,1202,1203,1204,1197,1198,1199,1200,1201,1202,1203,1204,1197,1198,1199,1200,1201,1202,1203,1204,1197,1198,1199,1200,1201,1202,1203,1204,
301,302,303,304,305,306,307,308,301,302,303,304,305,306,307,308,301,302,303,304,305,306,307,308,1923,1812,1813,1812,1813,1812,1813,1814,301,302,303,304,305,306,307,308,
429,430,431,432,433,434,435,436,429,430,431,432,433,434,435,436,429,430,431,432,433,434,435,436,2051,1940,1941,1940,1941,1940,1941,406,429,430,431,432,433,434,435,436,
557,558,559,560,561,562,563,564,557,558,559,560,561,562,563,564,557,558,559,560,561,562,563,564,2179,2068,2069,2068,2069,2068,2069,406,557,558,559,560,561,562,563,564,
685,686,687,688,689,690,691,692,685,686,687,688,689,690,691,692,685,686,687,688,689,690,691,692,2307,2196,2197,2196,2197,2196,2197,534,685,686,687,688,689,690,691,692,
813,814,815,816,817,818,819,820,813,814,815,816,817,818,819,820,813,814,815,816,817,818,819,820,2051,1940,1940,1940,1941,1941,1941,662,1814,814,815,816,817,818,819,820,
941,942,943,944,945,946,947,948,941,942,943,944,945,946,947,948,941,942,943,944,945,946,947,948,2179,2068,2068,2068,2069,2069,1940,1941,406,942,943,944,945,946,947,948,
1069,1070,1071,1072,1073,1074,1075,1076,1069,1070,1071,1072,1073,1074,1075,1076,1069,1070,1071,1072,1073,1074,1075,1923,2440,2196,2196,2196,2197,2197,1940,1941,534,1070,1071,1072,1073,1074,1075,1076,
1197,1198,1199,1200,1201,1202,1203,1204,1197,1198,1199,1200,1201,1202,1203,1204,1197,1198,1199,1200,1201,1202,1203,2051,1940,1941,1941,1941,1941,1941,1941,1941,534,1198,1199,1200,1201,1202,1203,1204,
301,302,303,304,305,306,307,308,301,302,303,304,305,306,307,308,301,302,303,304,305,306,307,2051,2068,2069,2069,2069,2069,2069,2069,2069,406,302,303,304,305,306,307,308,
429,430,431,432,433,434,451,452,429,430,431,432,433,434,435,436,429,430,431,432,433,434,435,2307,2196,2197,2197,2197,2197,2197,2197,2197,534,430,431,432,433,434,435,436,
557,558,559,560,561,562,563,564,557,558,559,560,561,562,563,564,557,558,559,560,561,562,563,2435,2436,2437,2438,2439,2436,2437,2438,2439,1047,558,559,560,561,562,563,564,
685,686,687,688,689,690,691,692,685,686,687,688,689,690,691,692,685,686,687,688,689,690,691,692,685,686,687,688,689,690,691,692,685,686,687,688,689,690,691,692,
813,814,815,816,817,818,819,820,813,814,815,816,817,818,819,820,813,814,815,816,817,818,819,820,813,814,815,816,817,818,819,820,813,814,815,816,817,818,819,820,
941,942,943,944,945,946,947,948,941,942,943,944,945,946,947,948,941,942,943,944,945,946,947,948,941,942,943,944,945,946,947,948,941,942,943,944,945,946,947,948,
1069,1070,1071,1072,1073,1074,1075,1076,1069,1070,1071,1072,1073,1074,1075,1076,1069,1070,1071,1072,1073,1074,1075,1076,1069,1070,1071,1072,1073,1074,1075,1076,1069,1070,1071,1072,1073,1074,1075,1076,
1197,1198,1199,1200,1201,1202,1203,1204,1197,1198,1199,1200,1201,1202,1203,1204,1197,1198,1199,1200,1201,1202,1203,1204,1197,1198,1199,1200,1201,1202,1203,1204,1197,1198,1199,1200,1201,1202,1203,1204
</data>
 </layer>
 <layer id="2" name="ground" width="40" height="40">
  <data encoding="csv">
2597,2598,2595,2596,2595,2596,2595,2596,2595,2596,2595,2596,2595,2596,2595,2596,2595,2596,2595,2596,0,0,0,0,2595,2596,2595,2596,2595,2596,2595,2596,2595,2596,2595,2596,2595,2596,2597,2598,
2981,2982,2723,2724,2723,2724,2723,2724,2723,2724,2723,2724,2723,2724,2723,2724,2723,2724,2723,2724,0,0,0,0,2723,2724,2723,2724,2723,2724,2723,2724,2723,2724,2723,2724,2723,2724,2981,2982,
2853,2854,2851,2852,2851,2852,2851,2852,2851,2852,2851,2852,2851,2852,2851,2852,2851,2852,2851,2852,0,0,0,0,2851,2852,2851,2852,2851,2852,2851,2852,2851,2852,2853,2854,2853,2854,2853,2854,
2981,2982,2979,2980,2979,2980,2979,2980,2979,2980,2979,2980,2979,2980,2979,2980,2979,2980,2979,2980,0,0,0,0,2979,2980,2979,2980,2979,2980,2979,2980,2853,2854,2981,2982,2981,2982,2981,2982,
2853,2854,3363,3364,3363,3364,0,1833,1833,1833,2085,2086,1833,1833,1834,0,0,0,0,0,0,0,0,0,0,0,0,0,0,0,0,0,2981,2982,2853,2854,2853,2854,2853,2854,
2981,2982,3491,3492,3491,3492,0,1961,1961,1961,2213,2214,1961,1961,1962,0,0,0,0,0,0,0,0,0,0,0,0,0,0,0,0,0,2851,2852,2981,2982,2981,2982,2981,2982,
2853,2854,3363,3364,0,0,0,1197,291,292,293,294,295,296,1197,0,0,0,0,0,0,0,0,0,0,0,0,0,0,0,0,0,2979,2980,2851,2852,2853,2854,2853,2854,
2981,2982,3491,3492,0,0,0,1197,419,420,1214,422,1082,424,1197,0,0,0,0,0,0,0,0,0,0,0,0,0,0,0,0,0,0,0,2979,2980,2981,2982,2981,2982,
2853,2854,0,0,0,0,0,1197,803,1085,805,1209,807,808,1197,0,0,0,0,0,0,0,0,0,0,0,0,0,0,0,0,0,0,0,0,0,2851,2852,2853,2854,
2981,2982,0,0,0,0,0,1197,931,932,933,934,935,936,1197,0,0,0,0,0,0,0,0,0,0,0,0,0,0,0,0,0,0,0,0,0,2979,2980,2981,2982,
2853,2854,0,0,0,0,0,1197,1197,1197,1197,1197,1197,1197,1197,0,0,0,0,0,0,0,0,0,0,0,0,0,0,0,0,0,0,0,0,0,0,0,2853,2854,
2981,2982,0,0,0,0,0,0,0,0,0,0,0,0,0,0,0,0,0,0,0,0,0,0,0,0,0,0,0,0,0,0,0,0,0,0,0,0,2981,2982,
2853,2854,0,0,0,0,0,0,0,0,0,0,0,0,0,0,0,0,0,0,0,0,0,0,0,0,0,0,0,0,0,0,0,0,0,0,0,0,2853,2854,
2981,2982,0,0,0,0,0,0,0,0,0,0,0,0,0,0,0,0,0,0,0,0,0,0,0,0,0,0,0,0,0,0,0,0,0,0,0,0,2981,2982,
2853,2854,0,0,0,0,0,0,0,0,0,0,0,0,0,0,0,0,0,0,0,0,0,0,0,0,0,0,0,0,0,0,0,0,0,0,0,0,2853,2854,
2981,2982,0,0,0,0,0,0,0,0,0,0,0,0,0,0,0,0,0,0,0,0,0,0,0,0,0,0,0,0,0,0,0,0,0,0,0,0,2981,2982,
2853,2854,0,0,0,0,0,0,0,0,0,0,0,0,0,0,0,0,0,0,0,0,0,0,0,0,0,0,0,0,0,0,0,0,0,0,0,0,2853,2854,
2981,2982,0,0,0,0,0,0,0,0,0,0,0,0,0,0,0,0,0,0,0,0,0,0,0,0,0,0,0,0,0,0,0,0,0,0,0,0,2981,2982,
2853,2854,0,0,0,0,0,0,0,0,0,0,0,0,0,0,0,0,0,0,0,0,0,0,0,0,0,0,0,0,0,0,0,0,0,0,0,0,2853,2854,
2981,2982,0,0,0,0,0,0,0,0,0,0,0,0,0,0,0,0,0,0,0,0,0,0,0,0,0,0,0,0,0,0,0,0,0,0,0,0,2981,2982,
2853,2854,0,0,0,0,0,0,0,0,0,0,0,0,0,0,0,0,0,0,0,0,0,0,0,0,0,0,0,0,0,0,0,0,0,0,0,0,2853,2854,
2981,2982,0,0,0,0,0,0,0,0,0,0,0,0,0,0,0,0,0,0,0,0,0,0,0,0,0,0,0,0,0,0,0,0,0,0,0,0,2981,2982,
2853,2854,0,0,0,0,0,0,0,0,0,0,0,0,0,0,0,0,0,0,0,0,0,0,0,0,0,0,0,0,0,0,0,0,0,0,0,0,2853,2854,
2981,2982,0,0,0,0,0,0,0,0,0,0,0,0,0,0,0,0,0,0,0,0,0,0,0,0,0,0,0,0,0,0,0,0,0,0,0,0,2981,2982,
2853,2854,0,0,0,0,0,0,0,0,0,0,0,0,0,0,0,0,0,0,0,0,0,0,0,0,0,0,0,0,0,0,0,0,0,0,0,0,2853,2854,
2981,2982,0,0,0,0,0,0,0,0,0,0,0,0,0,0,0,0,0,0,0,0,0,0,0,0,0,0,0,0,0,0,0,0,0,0,0,0,2981,2982,
2853,2854,0,0,0,0,0,0,0,0,0,0,0,0,0,0,0,0,0,0,0,0,0,0,0,0,0,0,0,0,0,0,0,0,0,0,0,0,2853,2854,
2981,2982,0,0,0,0,0,0,0,0,0,0,0,0,0,0,0,0,0,0,0,0,0,0,0,0,0,0,0,0,0,0,0,0,0,0,0,0,2981,2982,
2853,2854,0,0,0,0,0,0,0,0,0,0,0,0,0,0,0,0,0,0,0,0,0,0,0,0,0,0,0,0,0,0,0,0,0,0,0,0,2853,2854,
2981,2982,0,0,0,0,0,0,0,0,0,0,0,0,0,0,0,0,0,0,0,0,0,0,0,0,0,0,0,0,0,0,0,0,0,0,0,0,2981,2982,
2853,2854,2595,2596,0,0,0,0,0,0,0,0,0,0,0,0,0,0,0,0,0,0,0,0,0,0,0,0,0,0,0,0,0,0,0,0,0,0,2853,2854,
2981,2982,2723,2724,0,0,0,0,0,0,0,0,0,0,0,0,0,0,0,0,0,0,0,0,0,0,0,0,0,0,0,0,0,0,0,0,0,0,2981,2982,
2853,2854,2853,2854,2595,2596,0,0,0,0,0,0,0,0,0,0,0,0,0,0,0,0,0,0,0,0,0,0,0,0,0,0,0,0,0,0,0,0,2853,2854,
2981,2982,2981,2982,2723,2724,0,0,0,0,0,0,0,0,0,0,0,0,0,0,0,0,0,0,0,0,0,0,0,0,0,0,0,0,0,0,0,0,2981,2982,
2853,2854,2853,2854,2853,2854,2595,2596,2595,2596,3363,3364,0,0,0,0,0,0,0,0,0,0,0,0,0,0,0,0,0,0,0,0,0,0,2087,2088,3363,3364,2853,2854,
2981,2982,2981,2982,2981,2982,2723,2724,2723,2724,3491,3492,0,0,0,0,0,0,0,0,0,0,0,0,0,0,0,0,0,0,0,0,0,0,2215,2216,3491,3492,2981,2982,
2853,2854,2853,2854,2853,2854,2853,2854,2853,2854,2597,2598,2599,2600,2595,2596,2597,2598,2599,2600,2601,2602,2595,2596,2597,2598,2599,2600,2601,2602,2595,2596,2597,2598,2599,2600,2601,2602,2853,2854,
2723,2724,2981,2982,2981,2982,2981,2982,2981,2982,2723,2724,2723,2724,2723,2724,2723,2724,2723,2724,2723,2724,2723,2724,2723,2724,2723,2724,2723,2724,2723,2724,2723,2724,2723,2724,2723,2724,2981,2982,
2851,2852,2851,2852,2851,2852,2851,2852,2851,2852,2851,2852,2851,2852,2851,2852,2851,2852,2851,2852,2851,2852,2851,2852,2851,2852,2851,2852,2851,2852,2851,2852,2851,2852,2851,2852,2851,2852,2851,2852,
2979,2980,2979,2980,2979,2980,2979,2980,2979,2980,2979,2980,2979,2980,2979,2980,2979,2980,2979,2980,2979,2980,2979,2980,2979,2980,2979,2980,2979,2980,2979,2980,2979,2980,2979,2980,2979,2980,2979,2980
</data>
 </layer>
 <layer id="3" name="building" width="40" height="40">
  <data encoding="csv">
0,0,0,0,0,0,0,0,0,0,0,0,0,0,0,0,0,0,0,0,0,0,0,0,0,0,0,0,0,0,0,0,0,0,0,0,0,0,0,0,
0,0,0,0,0,0,0,0,0,0,0,0,0,0,0,0,0,0,0,0,0,0,0,0,0,0,0,0,0,0,0,0,0,0,0,0,0,0,0,0,
0,0,0,0,0,0,0,0,0,0,0,0,0,0,0,0,0,0,0,0,0,0,0,0,0,0,0,0,0,0,0,0,0,0,0,0,0,0,0,0,
0,0,0,0,0,0,0,0,0,0,0,0,0,0,0,0,0,0,0,0,0,0,0,0,0,0,0,0,0,0,0,0,0,0,0,0,0,0,0,0,
0,0,0,0,0,0,0,0,0,0,0,0,0,0,0,0,0,0,0,0,0,0,0,0,0,0,0,0,0,0,0,0,0,0,0,0,0,0,0,0,
0,0,0,0,0,0,0,0,0,0,0,0,0,0,0,0,0,0,0,0,0,0,0,0,0,0,0,0,0,0,0,0,0,0,0,0,0,0,0,0,
0,0,0,0,0,0,0,0,0,0,0,0,0,0,0,0,0,0,0,0,0,0,0,0,0,0,0,0,0,0,0,0,0,0,0,0,0,0,0,0,
0,0,0,0,0,0,0,0,0,0,0,0,0,0,0,0,0,0,0,0,0,0,0,0,0,0,6427,6428,6429,6430,6430,6430,6431,6432,0,0,0,0,0,0,
0,0,0,0,0,0,0,0,0,0,0,0,0,0,0,0,0,0,0,0,0,0,0,0,0,0,6811,6812,6813,6814,6814,6814,6815,6816,0,0,0,0,0,0,
0,0,0,0,0,0,0,0,0,0,0,0,0,0,0,0,0,0,0,0,0,0,0,0,0,0,6939,6940,6941,6942,6942,6942,6943,6944,0,0,0,0,0,0,
0,0,0,0,0,0,0,0,0,0,0,0,0,0,0,0,0,0,0,0,0,0,0,0,0,0,7067,7068,7069,7070,7070,7070,7071,7072,0,0,0,0,0,0,
0,0,0,0,0,0,0,0,0,0,0,0,0,0,0,0,0,0,0,0,0,0,0,0,0,0,7195,12317,12318,7198,12059,12060,7199,7200,0,0,0,0,0,0,
0,0,0,0,0,0,0,0,0,0,0,0,0,0,0,0,0,0,0,0,0,0,0,0,0,0,7323,12445,12446,7326,12187,12188,7327,7328,0,0,0,0,0,0,
0,0,0,0,0,0,0,0,0,0,0,0,0,0,0,0,0,0,0,0,0,0,0,0,0,0,0,0,0,0,0,0,0,0,0,0,0,0,0,0,
0,0,0,0,0,0,0,0,0,0,0,0,0,0,0,0,0,0,0,0,0,0,0,0,0,0,0,0,0,0,0,0,0,0,0,0,0,0,0,0,
0,0,0,0,0,0,0,0,0,0,0,0,0,0,0,0,0,0,0,0,0,0,0,0,0,0,0,0,0,0,0,0,0,0,0,0,0,0,0,0,
0,0,0,0,0,0,7457,7458,7459,7460,7459,7460,7461,7462,0,0,0,0,0,0,0,0,0,0,0,0,0,0,0,0,0,0,0,0,0,0,0,0,0,0,
0,0,0,0,0,0,6817,6818,6819,6820,6819,6820,6821,6822,0,0,0,0,0,0,0,0,0,0,0,0,0,0,0,0,0,0,0,0,0,0,0,0,0,0,
0,0,0,0,0,0,7585,7586,7587,7587,7587,7588,7589,7590,0,0,0,0,0,0,0,0,0,0,0,0,0,0,0,0,0,0,0,0,0,0,0,0,0,0,
0,0,0,0,0,0,7713,7714,7715,7715,7715,7716,7717,7718,0,0,0,0,0,0,0,0,0,0,0,0,0,0,0,0,0,0,0,0,0,0,0,0,0,0,
0,0,0,0,0,0,7201,12063,7203,7204,7204,7205,12063,7206,0,0,0,0,0,0,0,0,0,0,0,0,0,0,0,0,0,0,0,0,0,0,0,0,0,0,
0,0,0,0,0,0,7201,12191,7203,12059,12060,7205,12191,7206,0,0,0,0,0,0,0,0,0,0,0,0,0,0,0,0,0,0,0,0,0,0,0,0,0,0,
0,0,0,0,0,0,7841,7842,7843,12187,12188,7845,7845,7846,0,0,0,0,0,0,0,0,0,0,0,0,0,0,0,0,0,0,0,0,0,0,0,0,0,0,
0,0,0,0,0,0,0,0,0,0,0,0,0,0,0,0,0,0,0,0,0,0,0,0,0,0,0,0,0,0,0,0,0,0,0,0,0,0,0,0,
0,0,0,0,0,0,0,0,0,0,0,0,0,0,0,0,0,0,0,0,0,0,0,0,0,0,0,0,0,0,0,0,0,0,0,0,0,0,0,0,
0,0,0,0,0,0,0,0,0,0,0,0,0,0,0,0,0,0,0,0,0,0,0,0,0,0,0,0,0,0,0,0,0,0,0,0,0,0,0,0,
0,0,0,0,0,0,0,0,0,0,0,0,0,0,0,0,0,0,0,0,0,0,0,0,0,0,0,0,0,0,0,0,0,0,0,0,0,0,0,0,
0,0,0,0,0,0,0,0,0,0,0,0,0,0,0,0,0,0,0,0,0,0,0,0,0,0,0,0,0,0,0,0,0,0,0,0,0,0,0,0,
0,0,0,0,0,0,0,0,0,0,0,0,0,0,0,0,0,0,0,0,0,0,0,0,0,0,0,0,0,0,0,0,0,0,0,0,0,0,0,0,
0,0,0,0,0,0,0,0,0,0,0,0,0,0,0,0,0,0,0,0,0,0,0,0,0,0,0,0,0,0,0,0,0,0,0,0,0,0,0,0,
0,0,0,0,0,0,0,0,0,0,0,0,0,0,0,0,0,0,0,0,0,0,0,0,0,0,0,0,0,0,0,0,0,0,0,0,0,0,0,0,
0,0,0,0,0,0,0,0,0,0,0,0,0,0,0,0,0,0,0,0,0,0,0,0,0,0,0,0,0,0,0,0,0,0,0,0,0,0,0,0,
0,0,0,0,0,0,0,0,0,0,0,0,0,0,0,0,0,0,0,0,0,0,0,0,0,0,0,0,0,0,0,0,0,0,0,0,0,0,0,0,
0,0,0,0,0,0,0,0,0,0,0,0,0,0,0,0,0,0,0,0,0,0,0,0,0,0,0,0,0,0,0,0,0,0,0,0,0,0,0,0,
0,0,0,0,0,0,0,0,0,0,0,0,0,0,0,0,0,0,0,0,0,0,0,0,0,0,0,0,0,0,0,0,0,0,0,0,0,0,0,0,
0,0,0,0,0,0,0,0,0,0,0,0,0,0,0,0,0,0,0,0,0,0,0,0,0,0,0,0,0,0,0,0,0,0,0,0,0,0,0,0,
0,0,0,0,0,0,0,0,0,0,0,0,0,0,0,0,0,0,0,0,0,0,0,0,0,0,0,0,0,0,0,0,0,0,0,0,0,0,0,0,
0,0,0,0,0,0,0,0,0,0,0,0,0,0,0,0,0,0,0,0,0,0,0,0,0,0,0,0,0,0,0,0,0,0,0,0,0,0,0,0,
0,0,0,0,0,0,0,0,0,0,0,0,0,0,0,0,0,0,0,0,0,0,0,0,0,0,0,0,0,0,0,0,0,0,0,0,0,0,0,0,
0,0,0,0,0,0,0,0,0,0,0,0,0,0,0,0,0,0,0,0,0,0,0,0,0,0,0,0,0,0,0,0,0,0,0,0,0,0,0,0
</data>
 </layer>
 <objectgroup id="4" name="wall">
  <object id="2" x="48" y="128" width="64" height="40"/>
  <object id="3" x="56" y="32" width="64" height="16"/>
  <object id="4" x="208" y="56" width="64" height="32"/>
  <object id="9" x="192" y="192" width="64" height="32"/>
  <object id="10" x="192" y="224" width="72" height="16"/>
  <object id="11" x="184" y="240" width="80" height="40"/>
  <object id="12" x="272" y="272" width="32" height="16"/>
  <object id="13" x="0" y="272" width="96" height="16"/>
  <object id="14" x="0" y="288" width="320" height="32"/>
  <object id="15" x="0" y="256" width="48" height="16"/>
  <object id="16" x="0" y="240" width="32" height="16"/>
  <object id="17" x="0" y="0" width="16" height="240"/>
  <object id="18" x="16" y="0" width="32" height="48"/>
  <object id="19" x="16" y="48" width="16" height="16"/>
  <object id="20" x="48" y="0" width="112" height="32"/>
  <object id="21" x="192" y="0" width="128" height="32"/>
  <object id="22" x="256" y="32" width="64" height="24"/>
  <object id="23" x="272" y="56" width="48" height="8"/>
  <object id="24" x="288" y="64" width="32" height="16"/>
  <object id="25" x="304" y="80" width="16" height="208"/>
 </objectgroup>
</map>
