<?xml version="1.0" encoding="UTF-8"?>
<map version="1.10" tiledversion="1.11.2" orientation="orthogonal" renderorder="right-down" width="19" height="19" tilewidth="16" tileheight="16" infinite="0" nextlayerid="7" nextobjectid="23">
 <editorsettings>
  <export target="map-tent.lua" format="lua"/>
 </editorsettings>
 <tileset firstgid="1" name="ninja-camp" tilewidth="16" tileheight="16" tilecount="207" columns="23">
  <image source="../art/ninja-camp.png" width="368" height="144"/>
 </tileset>
 <layer id="1" name="base" width="19" height="19" locked="1">
  <data encoding="csv">
0,0,0,0,0,0,0,0,0,0,0,0,0,0,0,0,0,0,0,
0,0,0,0,0,0,0,0,0,0,0,0,0,0,0,0,0,0,0,
0,0,0,0,0,0,0,0,0,0,0,0,0,0,0,0,0,0,0,
0,0,0,0,0,0,0,0,0,0,0,0,0,0,0,0,0,0,0,
0,0,0,0,0,0,0,0,0,0,0,0,0,0,0,0,0,0,0,
0,0,0,0,0,15,16,17,21,22,23,0,0,0,0,0,0,0,0,
0,0,0,0,0,38,39,40,44,45,46,0,0,0,0,0,0,0,0,
0,0,0,0,0,61,62,63,67,68,69,0,0,0,0,0,0,0,0,
0,0,0,0,0,84,85,89,90,91,92,0,0,0,0,0,0,0,0,
0,0,0,0,0,107,108,112,132,133,115,0,0,0,0,0,0,0,0,
0,0,0,0,0,130,131,135,136,137,138,0,0,0,0,0,0,0,0,
0,0,0,0,0,153,178,179,180,181,161,0,0,0,0,0,0,0,0,
0,0,0,0,0,0,0,202,203,0,184,0,0,0,0,0,0,0,0,
0,0,0,0,0,199,0,0,0,206,207,0,0,0,0,0,0,0,0,
0,0,0,0,0,0,0,0,0,0,0,0,0,0,0,0,0,0,0,
0,0,0,0,0,0,0,0,0,0,0,0,0,0,0,0,0,0,0,
0,0,0,0,0,0,0,0,0,0,0,0,0,0,0,0,0,0,0,
0,0,0,0,0,0,0,0,0,0,0,0,0,0,0,0,0,0,0,
0,0,0,0,0,0,0,0,0,0,0,0,0,0,0,0,0,0,0
</data>
 </layer>
 <layer id="2" name="ground" width="19" height="19" locked="1">
  <data encoding="csv">
0,0,0,0,0,0,0,0,0,0,0,0,0,0,0,0,0,0,0,
0,0,0,0,0,0,0,0,0,0,0,0,0,0,0,0,0,0,0,
0,0,0,0,0,0,0,0,0,0,0,0,0,0,0,0,0,0,0,
0,0,0,0,0,0,0,0,0,0,0,0,0,0,0,0,0,0,0,
0,0,0,0,0,0,0,0,0,0,0,0,0,0,0,0,0,0,0,
0,0,0,0,0,0,0,0,0,0,0,0,0,0,0,0,0,0,0,
0,0,0,0,0,0,0,71,72,0,0,0,0,0,0,0,0,0,0,
0,0,0,0,0,0,100,94,95,0,0,0,0,0,0,0,0,0,0,
0,0,0,0,0,0,0,0,0,0,142,0,0,0,0,0,0,0,0,
0,0,0,0,0,0,0,124,125,0,171,0,0,0,0,0,0,0,0,
0,0,0,0,0,121,0,147,148,0,119,0,0,0,0,0,0,0,0,
0,0,0,0,0,0,0,0,0,97,0,0,0,0,0,0,0,0,0,
0,0,0,0,0,0,0,0,0,0,0,0,0,0,0,0,0,0,0,
0,0,0,0,0,0,0,0,0,0,0,0,0,0,0,0,0,0,0,
0,0,0,0,0,0,0,0,0,0,0,0,0,0,0,0,0,0,0,
0,0,0,0,0,0,0,0,0,0,0,0,0,0,0,0,0,0,0,
0,0,0,0,0,0,0,0,0,0,0,0,0,0,0,0,0,0,0,
0,0,0,0,0,0,0,0,0,0,0,0,0,0,0,0,0,0,0,
0,0,0,0,0,0,0,0,0,0,0,0,0,0,0,0,0,0,0
</data>
 </layer>
 <objectgroup id="6" name="soul" locked="1">
  <object id="20" name="pointPlayer" x="128" y="192">
   <point/>
  </object>
 </objectgroup>
 <objectgroup id="4" name="wall">
  <object id="4" x="176" y="128" width="16" height="64"/>
  <object id="6" x="64" y="128" width="16" height="64"/>
  <object id="7" x="80" y="192" width="32" height="16"/>
  <object id="10" x="144" y="192" width="32" height="16"/>
  <object id="11" x="80" y="112" width="16" height="16"/>
  <object id="12" x="99" y="117" width="10" height="4"/>
  <object id="13" x="96" y="96" width="64" height="8"/>
  <object id="15" x="160" y="112" width="16" height="16"/>
  <object id="18" x="163" y="144" width="13" height="10"/>
  <object id="19" x="82" y="160" width="14" height="10"/>
 </objectgroup>
 <objectgroup id="5" name="warp">
  <object id="17" name="warpToMapStart" x="112" y="206" width="32" height="8"/>
 </objectgroup>
 <objectgroup id="3" name="husk">
  <object id="1" name="pointChest" x="95" y="141">
   <point/>
  </object>
 </objectgroup>
</map>
