<?xml version="1.0" encoding="UTF-8"?>
<map version="1.10" tiledversion="1.12.0" orientation="orthogonal" renderorder="right-down" width="40" height="40" tilewidth="8" tileheight="8" infinite="0" nextlayerid="5" nextobjectid="27">
 <editorsettings>
  <export target="map-interior-1.lua" format="lua"/>
 </editorsettings>
 <tileset firstgid="1" name="gb-tileset-color" tilewidth="8" tileheight="8" tilecount="16384" columns="128">
  <image source="../art/gb-tileset-color.png" width="1024" height="1024"/>
 </tileset>
 <layer id="1" name="base" width="40" height="40">
  <data encoding="csv">
0,0,0,0,0,0,0,0,0,0,0,0,0,0,0,0,0,0,0,0,0,0,0,0,0,0,0,0,0,0,0,0,0,0,0,0,0,0,0,0,
0,0,0,0,0,0,0,0,0,0,0,0,0,0,0,0,0,0,0,0,0,0,0,0,0,0,0,0,0,0,0,0,0,0,0,0,0,0,0,0,
0,0,0,0,0,0,0,0,0,0,0,0,0,0,0,0,0,0,0,0,0,0,0,0,0,0,0,0,0,0,0,0,0,0,0,0,0,0,0,0,
0,0,0,0,0,0,0,0,0,0,0,0,0,0,0,0,0,0,0,0,0,0,0,0,0,0,0,0,0,0,0,0,0,0,0,0,0,0,0,0,
0,0,0,0,0,0,0,0,0,0,0,0,0,0,0,0,0,0,0,0,0,0,0,0,0,0,0,0,0,0,0,0,0,0,0,0,0,0,0,0,
0,0,0,0,0,0,0,0,0,0,0,0,0,0,0,0,0,0,0,0,0,0,0,0,0,0,0,0,0,0,0,0,0,0,0,0,0,0,0,0,
0,0,0,0,0,0,0,0,0,0,0,0,0,0,0,0,0,0,0,0,0,0,0,0,0,0,0,0,0,0,0,0,0,0,0,0,0,0,0,0,
0,0,0,0,0,0,0,0,0,0,0,0,0,0,0,0,0,0,0,0,0,0,0,0,0,0,0,0,0,0,0,0,0,0,0,0,0,0,0,0,
0,0,0,0,0,0,0,0,0,0,0,0,0,0,0,0,0,0,0,0,0,0,0,0,0,0,0,0,0,0,0,0,0,0,0,0,0,0,0,0,
0,0,0,0,0,0,0,0,0,0,0,0,0,0,0,0,0,0,0,0,0,0,0,0,0,0,0,0,0,0,0,0,0,0,0,0,0,0,0,0,
0,0,0,0,0,0,0,0,0,0,0,0,0,0,0,0,0,0,0,0,0,0,0,0,0,0,0,0,0,0,0,0,0,0,0,0,0,0,0,0,
0,0,0,0,0,0,0,0,0,0,0,0,0,0,0,0,0,0,0,0,0,0,0,0,0,0,0,0,0,0,0,0,0,0,0,0,0,0,0,0,
0,0,0,0,0,0,0,0,0,0,0,0,0,0,0,0,0,0,0,0,0,0,0,0,0,0,0,0,0,0,0,0,0,0,0,0,0,0,0,0,
0,0,0,0,0,0,0,0,0,0,0,0,0,0,0,0,0,0,0,0,0,0,0,0,0,0,0,0,0,0,0,0,0,0,0,0,0,0,0,0,
0,0,0,0,0,0,0,0,0,0,0,0,0,0,0,0,0,0,0,0,0,0,0,0,0,0,0,0,0,0,0,0,0,0,0,0,0,0,0,0,
0,0,0,0,0,0,0,0,0,0,0,0,0,0,0,0,0,0,0,0,0,0,0,0,0,0,0,0,0,0,0,0,0,0,0,0,0,0,0,0,
0,0,0,0,0,0,0,0,0,0,0,0,0,0,0,0,0,0,0,0,0,0,0,0,0,0,0,0,0,0,0,0,0,0,0,0,0,0,0,0,
0,0,0,0,0,0,0,0,0,0,0,0,0,0,0,0,0,0,0,0,0,0,0,0,0,0,0,0,0,0,0,0,0,0,0,0,0,0,0,0,
0,0,0,0,0,0,0,0,0,0,0,0,0,0,0,0,0,0,0,0,0,0,0,0,0,0,0,0,0,0,0,0,0,0,0,0,0,0,0,0,
0,0,0,0,0,0,0,0,0,0,0,0,0,0,0,0,0,0,0,0,0,0,0,0,0,0,0,0,0,0,0,0,0,0,0,0,0,0,0,0,
0,0,0,0,0,0,0,0,13739,13740,5695,5696,3903,3905,3906,3907,3908,5695,5696,13739,13740,5685,5686,5695,5696,5696,5695,5696,5695,5696,13739,13740,0,0,0,0,0,0,0,0,
0,0,0,0,0,0,0,0,13867,13868,5823,5824,4031,4033,4034,4035,4036,5823,5824,13995,13996,5813,5814,5823,5824,5824,5823,5824,5823,5824,13867,13868,0,0,0,0,0,0,0,0,
0,0,0,0,0,0,0,0,13995,13996,6973,6974,4159,4161,4162,4163,4164,6974,6973,13995,13996,6974,6973,6461,6462,6462,6462,6462,6462,6462,13995,13996,0,0,0,0,0,0,0,0,
0,0,0,0,0,0,0,0,13995,13996,6973,6974,7101,7102,7101,7102,7101,7102,7101,14123,14124,7102,7101,6461,6462,6590,6461,6461,6462,6590,13867,13868,0,0,0,0,0,0,0,0,
0,0,0,0,0,0,0,0,13995,13996,4205,4206,6973,6974,6973,6974,6973,6974,6973,14251,14252,6974,7101,6461,3913,3914,3915,3916,3917,3918,13995,13996,0,0,0,0,0,0,0,0,
0,0,0,0,0,0,0,0,13995,13996,3949,3950,4699,4700,7101,7102,7101,7102,6974,6974,6974,6974,7101,6589,4041,4042,4043,4044,4045,4046,13995,13996,0,0,0,0,0,0,0,0,
0,0,0,0,0,0,0,0,13995,13996,4333,4334,4827,4828,6973,6974,6973,6974,6974,6974,6974,6974,6973,6461,6462,6462,6462,6462,6590,6590,13995,13996,0,0,0,0,0,0,0,0,
0,0,0,0,0,0,0,0,13995,13996,4461,4462,7101,7102,7101,7102,7101,7102,7101,13611,13612,7102,7101,6589,6590,6590,6590,6461,6462,6462,13995,13996,0,0,0,0,0,0,0,0,
0,0,0,0,0,0,0,0,13995,13996,6973,6974,6973,6974,6973,6974,6973,6974,6973,13867,13868,6974,6973,6461,6461,6461,6461,6589,6590,6590,13995,13996,0,0,0,0,0,0,0,0,
0,0,0,0,0,0,0,0,13995,13996,7101,7101,7101,7101,7101,7101,7101,7101,7101,13867,13996,7102,7101,7101,7101,7101,7101,7101,7101,7101,13995,13996,0,0,0,0,0,0,0,0,
0,0,0,0,0,0,0,0,13995,13856,14375,14375,14375,14375,14375,14375,14375,14375,14376,14115,14124,6974,6973,6974,6973,6974,6973,6974,7101,7102,13995,13996,0,0,0,0,0,0,0,0,
0,0,0,0,0,0,0,0,13995,13996,14502,14502,14502,14502,14502,14502,14502,14502,14502,14502,14252,7102,7101,7102,7101,4955,4956,4955,4956,7102,13995,13996,0,0,0,0,0,0,0,0,
0,0,0,0,0,0,0,0,13995,13996,6973,6974,6973,6974,6973,6974,6973,6974,6973,6974,6973,6974,6973,6974,6973,5083,5084,5083,5084,7102,13995,13996,0,0,0,0,0,0,0,0,
0,0,0,0,0,0,0,0,13995,13996,6973,6974,7101,7102,7101,7102,7101,7102,7101,7102,7101,7102,7101,7102,4199,4200,4201,4202,4203,4204,13995,13996,0,0,0,0,0,0,0,0,
0,0,0,0,0,0,0,0,13995,13996,6973,6974,6973,6974,6973,6974,6973,6974,6973,6973,6973,6974,6973,6974,3803,3804,3805,3806,3807,3808,13995,13996,0,0,0,0,0,0,0,0,
0,0,0,0,0,0,0,0,13739,13740,6973,6974,7101,7102,7101,7102,7101,7102,7101,13611,13612,7102,7101,7102,3931,3932,3933,3934,3935,3936,13739,13740,0,0,0,0,0,0,0,0,
0,0,0,0,0,0,0,0,13867,13868,3379,3380,6973,6974,6973,6974,6973,3379,3380,13867,13868,6974,6973,6974,4327,4328,4329,4330,4331,4332,13867,13868,0,0,0,0,0,0,0,0,
0,0,0,0,0,0,0,0,13995,13996,3507,3508,7101,7102,7101,7102,7101,3507,3508,13995,13996,7102,7101,7102,4957,4958,4457,4959,4960,4460,13995,13996,0,0,0,0,0,0,0,0,
0,0,0,0,0,0,0,0,13995,13996,3635,3636,6973,6709,6710,6712,7102,3635,3636,13995,13996,6974,6973,6974,5085,5086,6973,5087,5088,7102,13995,13996,0,0,0,0,0,0,0,0,
0,0,0,0,0,0,0,0,13995,13996,3763,3764,7101,6837,6838,6840,7102,3763,3764,13995,13996,7102,7101,7102,7101,7102,7101,7102,7101,7102,13995,13996,0,0,0,0,0,0,0,0
</data>
 </layer>
 <objectgroup id="3" name="wall">
  <object id="1" x="64" y="152" width="104" height="8"/>
  <object id="2" x="240" y="160" width="16" height="160"/>
  <object id="3" x="64" y="160" width="16" height="160"/>
  <object id="4" x="80" y="240" width="72" height="8"/>
  <object id="5" x="152" y="216" width="16" height="32"/>
  <object id="6" x="152" y="160" width="16" height="32"/>
  <object id="7" x="96" y="160" width="40" height="8"/>
  <object id="8" x="80" y="192" width="16" height="24"/>
  <object id="9" x="96" y="200" width="16" height="16"/>
  <object id="10" x="136" y="288" width="16" height="32"/>
  <object id="11" x="80" y="288" width="16" height="32"/>
  <object id="13" x="192" y="296" width="16" height="16"/>
  <object id="14" x="216" y="296" width="16" height="16"/>
  <object id="15" x="192" y="264" width="48" height="32"/>
  <object id="17" x="200" y="248" width="32" height="16"/>
  <object id="18" x="192" y="192" width="48" height="8"/>
  <object id="19" x="152" y="280" width="16" height="40"/>
  <object id="21" x="184" y="152" width="72" height="8"/>
  <object id="26" x="168" y="320" width="72" height="8"/>
 </objectgroup>
 <objectgroup id="4" name="warp">
  <object id="20" name="warpToUpstairs" x="168" y="152" width="16" height="8"/>
  <object id="24" name="warpToExterior1" x="104" y="320" width="24" height="8"/>
 </objectgroup>
</map>
