<?xml version="1.0" encoding="UTF-8"?>
<map version="1.10" tiledversion="1.12.0" orientation="orthogonal" renderorder="right-down" width="20" height="20" tilewidth="16" tileheight="16" infinite="0" nextlayerid="12" nextobjectid="26">
 <editorsettings>
  <export target="map-start.lua" format="lua"/>
 </editorsettings>
 <tileset firstgid="1" name="ninja-floor" tilewidth="16" tileheight="16" tilecount="572" columns="22">
  <image source="../art/ninja-floor.png" width="352" height="417"/>
 </tileset>
 <tileset firstgid="573" name="ninja-nature" tilewidth="16" tileheight="16" tilecount="504" columns="24">
  <image source="../art/ninja-nature.png" width="384" height="336"/>
 </tileset>
 <tileset firstgid="1077" name="ninja-camp" tilewidth="16" tileheight="16" tilecount="207" columns="23">
  <image source="../art/ninja-camp.png" width="368" height="144"/>
 </tileset>
 <layer id="1" name="base" width="20" height="20" locked="1">
  <data encoding="csv">
265,265,265,265,265,265,265,265,265,265,265,265,265,265,265,265,265,265,265,265,
265,265,265,265,265,265,265,265,265,265,265,265,265,265,265,265,265,265,265,265,
265,265,265,265,265,265,265,265,265,265,265,265,265,265,265,265,265,265,265,265,
265,265,265,265,155,156,156,157,245,265,265,265,265,265,265,265,265,155,156,156,
265,265,267,155,205,178,178,178,157,246,265,265,265,155,156,156,156,205,178,178,
265,265,246,177,178,178,178,178,178,157,265,265,155,205,178,178,178,178,178,178,
265,265,155,205,178,178,178,178,178,179,267,265,177,178,178,178,182,200,200,200,
265,265,199,183,178,178,178,178,178,204,156,156,205,182,200,200,201,265,265,246,
265,265,265,199,200,183,178,178,178,178,178,178,182,201,265,245,246,266,265,265,
265,265,265,265,265,199,183,178,178,178,182,200,201,265,268,265,269,265,265,265,
265,265,265,246,245,265,199,200,200,200,201,268,265,265,245,265,265,245,265,265,
265,265,265,265,265,265,269,265,265,265,265,265,265,265,265,265,265,265,265,265,
265,265,265,265,265,265,265,265,265,265,265,265,265,265,265,265,265,265,265,265,
265,265,265,265,265,265,265,265,265,265,265,265,265,265,265,265,265,265,265,265,
265,265,265,265,265,265,265,265,265,265,265,265,265,265,265,265,265,265,265,265,
265,265,265,265,265,265,265,265,265,265,265,265,265,265,265,265,265,265,265,265,
265,265,265,265,265,265,265,265,265,265,265,265,265,265,265,265,265,265,265,265,
265,265,265,265,265,265,265,265,265,265,265,265,265,265,265,265,265,265,265,265,
265,265,265,265,265,265,265,265,265,265,265,265,265,265,265,265,265,265,265,265,
265,265,265,265,265,265,265,265,265,265,265,265,265,265,265,265,265,265,265,265
</data>
 </layer>
 <layer id="2" name="ground" width="20" height="20">
  <data encoding="csv">
646,647,646,647,646,647,646,647,646,647,646,647,646,647,646,647,646,647,646,647,
647,646,647,646,647,646,647,646,647,646,647,646,647,646,647,646,647,646,647,646,
646,670,671,670,671,670,671,670,671,647,646,647,646,647,646,647,646,670,671,670,
647,648,0,0,0,0,0,0,0,669,670,671,670,671,670,671,672,0,0,0,
646,672,0,0,0,0,0,0,0,0,924,925,1261,0,0,0,0,0,0,0,
647,576,0,0,0,0,0,0,0,0,948,949,0,0,0,0,0,0,0,0,
646,600,0,0,0,1154,1155,0,0,0,0,1264,0,0,0,0,0,0,0,0,
647,576,0,0,922,1204,1205,1192,0,0,0,0,0,0,0,0,0,0,0,0,
646,647,648,0,946,1227,1228,1215,0,0,0,0,0,0,0,0,0,0,0,0,
647,646,672,0,0,1195,0,0,0,0,0,0,0,0,0,0,0,0,622,623,
646,647,648,0,0,0,0,767,768,0,0,0,0,0,0,622,623,622,646,647,
647,646,647,648,622,623,0,791,792,0,622,623,622,623,622,646,647,646,647,646,
646,647,646,647,646,647,648,622,623,645,646,647,646,647,646,647,646,647,646,647,
647,646,647,646,647,646,647,646,647,646,647,646,647,646,647,646,647,646,647,646,
646,647,646,647,646,647,646,647,646,647,646,647,646,647,646,647,646,647,646,647,
647,646,647,646,647,646,647,646,647,646,647,646,647,646,647,646,647,646,647,646,
646,647,646,647,646,647,646,647,646,647,646,647,646,647,646,647,646,647,646,647,
647,646,647,646,647,646,647,646,647,646,647,646,647,646,647,646,647,646,647,646,
646,647,646,647,646,647,646,647,646,647,646,647,646,647,646,647,646,647,646,647,
647,646,647,646,647,646,647,646,647,646,647,646,647,646,647,646,647,646,647,646
</data>
 </layer>
 <layer id="8" name="building" width="20" height="20" locked="1">
  <data encoding="csv">
0,0,0,0,0,0,0,0,0,0,0,0,0,0,0,0,0,0,0,0,
0,0,0,0,0,0,0,0,0,0,0,0,0,0,0,0,0,0,0,0,
0,0,0,0,1081,1082,1083,0,0,0,0,0,0,0,0,0,0,0,0,0,
0,0,0,0,1104,1105,1106,0,0,0,0,0,0,0,0,0,0,0,0,0,
0,0,0,0,1127,1128,1129,0,0,0,0,0,0,0,0,0,0,0,0,0,
0,0,0,0,0,0,0,0,0,0,0,0,0,0,0,0,0,0,0,0,
0,0,0,0,0,0,0,0,0,0,0,0,0,0,0,0,0,0,0,0,
0,0,0,0,0,0,0,0,0,0,0,0,0,0,0,0,0,0,0,0,
0,0,0,0,0,0,0,0,0,0,0,0,0,0,0,0,0,0,0,0,
0,0,0,0,0,0,0,0,0,0,0,0,0,0,0,0,0,0,0,0,
0,0,0,0,0,0,0,0,0,0,0,0,0,0,0,0,0,0,0,0,
0,0,0,0,0,0,0,0,0,0,0,0,0,0,0,0,0,0,0,0,
0,0,0,0,0,0,0,0,0,0,0,0,0,0,0,0,0,0,0,0,
0,0,0,0,0,0,0,0,0,0,0,0,0,0,0,0,0,0,0,0,
0,0,0,0,0,0,0,0,0,0,0,0,0,0,0,0,0,0,0,0,
0,0,0,0,0,0,0,0,0,0,0,0,0,0,0,0,0,0,0,0,
0,0,0,0,0,0,0,0,0,0,0,0,0,0,0,0,0,0,0,0,
0,0,0,0,0,0,0,0,0,0,0,0,0,0,0,0,0,0,0,0,
0,0,0,0,0,0,0,0,0,0,0,0,0,0,0,0,0,0,0,0,
0,0,0,0,0,0,0,0,0,0,0,0,0,0,0,0,0,0,0,0
</data>
 </layer>
 <objectgroup id="11" name="point">
  <object id="21" name="pointPlayer" x="152" y="136">
   <point/>
  </object>
  <object id="22" name="pointChest" x="48" y="64">
   <point/>
  </object>
 </objectgroup>
 <objectgroup id="9" name="wall">
  <object id="3" x="0" y="192" width="320" height="128"/>
  <object id="4" x="160" y="176" width="160" height="16"/>
  <object id="5" x="240" y="160" width="80" height="16"/>
  <object id="6" x="288" y="144" width="32" height="16"/>
  <object id="7" x="0" y="176" width="96" height="16"/>
  <object id="8" x="0" y="128" width="48" height="48"/>
  <object id="9" x="0" y="0" width="32" height="128"/>
  <object id="10" x="32" y="0" width="288" height="40"/>
  <object id="11" x="144" y="40" width="128" height="16"/>
  <object id="12" x="160" y="80" width="32" height="8"/>
  <object id="14" x="113" y="176" width="30" height="16"/>
  <object id="15" x="80" y="112" width="32" height="24"/>
  <object id="16" x="80" y="96" width="32" height="16"/>
  <object id="17" x="64" y="40" width="48" height="20"/>
  <object id="18" x="64" y="64" width="16" height="8"/>
  <object id="19" x="96" y="64" width="16" height="8"/>
  <object id="23" x="116" y="167" width="24" height="9"/>
  <object id="24" x="165" y="66" width="15" height="14"/>
  <object id="25" x="180" y="72" width="9" height="8"/>
 </objectgroup>
 <objectgroup id="10" name="warp">
  <object id="20" name="warpToTent" x="80" y="60" width="16" height="8"/>
 </objectgroup>
</map>
