<?xml version="1.0" encoding="UTF-8"?>
<map version="1.10" tiledversion="1.12.0" orientation="orthogonal" renderorder="right-down" width="40" height="40" tilewidth="8" tileheight="8" infinite="0" nextlayerid="5" nextobjectid="22">
 <tileset firstgid="1" name="gb-tileset-color" tilewidth="8" tileheight="8" tilecount="16384" columns="128">
  <image source="../art/gb-tileset-color.png" width="1024" height="1024"/>
 </tileset>
 <layer id="1" name="base" width="40" height="40">
  <data encoding="csv">
2853,2854,2853,2854,2853,2854,2853,2854,2853,2854,2853,2854,2853,2854,2853,2854,2853,2854,2853,2854,2853,2854,2853,2854,2853,2854,2853,2854,2853,2854,2853,2854,2853,2854,2853,2854,2853,2854,2853,2854,
2981,2982,2981,2982,2981,2982,2981,2982,2981,2982,2981,2982,2981,2982,2981,2982,2981,2982,2981,2982,2981,2982,2981,2982,2981,2982,2981,2982,2981,2982,2981,2982,2981,2982,2981,2982,2981,2982,2981,2982,
2853,2854,2853,2854,2853,2854,2853,2854,2853,2854,2853,2854,2853,2854,2853,2854,2853,2854,2853,2854,2853,2854,2853,2854,2853,2854,2853,2854,2853,2854,2853,2854,2853,2854,2853,2854,2853,2854,2853,2854,
2981,2982,2981,2982,2981,2982,2981,2982,2981,2982,2981,2982,2981,2982,2981,2982,2981,2982,2981,2982,2981,2982,2981,2982,2981,2982,2981,2982,2981,2982,2981,2982,2981,2982,2981,2982,2981,2982,2853,2854,
2853,2854,2853,2854,2853,2854,2853,2854,2853,2854,2853,2854,2853,2854,2853,2854,2853,2854,2853,2854,2853,2854,2853,2854,2853,2854,2853,2854,2853,2854,2853,2854,2853,2854,2853,2854,2853,2854,2853,2854,
2981,2982,2981,2982,2981,2982,2981,2982,2981,2982,2981,2982,2981,2982,2981,2982,2981,2982,2981,2982,2981,2982,2981,2982,2981,2982,2981,2982,2981,2982,2981,2982,2981,2982,2981,2982,2981,2982,2853,2854,
2853,2854,2853,2854,2853,2854,2853,2854,2853,2854,2853,2854,2853,2854,2853,2854,2853,2854,2851,2852,2851,2852,2851,2852,2851,2852,2853,2854,2853,2854,2853,2854,2853,2854,2853,2854,2853,2854,2853,2854,
2981,2982,2981,2982,2981,2982,2981,2982,2981,2982,2981,2982,2981,2982,2981,2982,2981,2982,2979,2980,2979,2980,2979,2980,2979,2980,2981,2982,2981,2982,2981,2982,2981,2982,2981,2982,2981,2982,2853,2854,
2853,2854,2853,2854,2853,2854,2853,2854,2853,2854,2853,2854,2853,2854,2853,2854,2851,2852,809,809,809,809,809,809,809,809,2851,2852,2853,2854,2853,2854,2853,2854,2853,2854,2853,2854,2853,2854,
2981,2982,2981,2982,2981,2982,2981,2982,2981,2982,2981,2982,2981,2982,2981,2982,2979,2980,809,305,306,301,429,430,431,809,2979,2980,2981,2982,2981,2982,2981,2982,2981,2982,2981,2982,2853,2854,
2853,2854,2853,2854,2853,2854,2853,2854,2853,2854,2853,2854,2853,2854,2851,2852,680,809,432,433,301,429,557,558,559,816,809,809,2851,2852,2853,2854,2853,2854,2853,2854,2853,2854,2853,2854,
2981,2982,2981,2982,2981,2982,2981,2982,2981,2982,2981,2982,2981,2982,2979,2980,809,559,560,301,429,557,685,686,687,688,689,809,2979,2980,2981,2982,2981,2982,2981,2982,2981,2982,2853,2854,
2853,2854,2853,2854,2853,2854,2853,2854,2853,2854,2853,2854,2853,2854,680,809,686,687,301,302,303,304,813,814,815,816,817,816,809,809,2853,2854,2853,2854,2853,2854,2853,2854,2853,2854,
2981,2982,2981,2982,2981,2982,2981,2982,2981,2982,2981,2982,2981,2982,680,813,814,815,429,430,431,432,941,942,943,944,945,946,947,809,2981,2982,2981,2982,2981,2982,2981,2982,2853,2854,
2853,2854,2853,2854,2853,2854,2853,2854,2853,2854,2853,2854,2853,2854,680,941,942,943,557,558,559,560,1069,1070,1071,1072,1073,1074,1075,809,2853,2854,2853,2854,2853,2854,2853,2854,2853,2854,
2981,2982,2981,2982,2981,2982,2981,2982,2981,2982,2981,2982,2981,2982,680,1069,1070,1071,685,686,687,688,1197,1198,1199,1200,1201,1202,1203,809,2981,2982,2981,2982,2981,2982,2981,2982,2853,2854,
2853,2854,2853,2854,2853,2854,2853,2854,2853,2854,2853,2854,2853,2854,296,1197,1198,1199,813,814,815,816,817,818,819,820,1202,1203,1204,809,2853,2854,2853,2854,2853,2854,2853,2854,2853,2854,
2981,2982,2981,2982,2981,2982,2981,2982,2981,2982,2981,2982,2981,2982,677,296,1197,1198,941,942,943,944,945,946,947,948,1203,1204,297,677,2981,2982,2981,2982,2981,2982,2981,2982,2853,2854,
2853,2854,2853,2854,2853,2854,2853,2854,2853,2854,2853,2854,2853,2854,2595,2596,296,1197,1069,1070,1071,1072,1073,1074,1075,1076,1204,297,2595,2596,2853,2854,2853,2854,2853,2854,2853,2854,2853,2854,
2981,2982,2981,2982,2981,2982,2981,2982,2981,2982,2981,2982,2981,2982,2723,2724,677,296,1197,1198,1199,1200,1201,1202,1203,1204,297,677,2723,2724,2981,2982,2981,2982,2981,2982,2981,2982,2853,2854,
2853,2854,2853,2854,2853,2854,2853,2854,2853,2854,2853,2854,2853,2854,2853,2854,2595,2596,296,943,944,945,817,816,816,297,2595,2596,2853,2854,2853,2854,2853,2854,2853,2854,2853,2854,2853,2854,
2981,2982,2981,2982,2981,2982,2981,2982,2981,2982,2981,2982,2981,2982,2981,2982,2723,2724,677,296,943,944,816,816,297,677,2723,2724,2981,2982,2981,2982,2981,2982,2981,2982,2981,2982,2853,2854,
2853,2854,2853,2854,2853,2854,2853,2854,2853,2854,2853,2854,2853,2854,2853,2854,2853,2854,423,424,305,306,307,308,419,420,2853,2854,2853,2854,2853,2854,2853,2854,2853,2854,2853,2854,2853,2854,
2981,2982,2981,2982,2981,2982,2981,2982,2981,2982,2981,2982,2981,2982,2981,2982,2981,2982,551,552,433,434,435,436,547,548,2981,2982,2981,2982,2981,2982,2981,2982,2981,2982,2981,2982,2853,2854,
2853,2854,2853,2854,2853,2854,2853,2854,2853,2854,2853,2854,2853,2854,2853,2854,2853,2854,679,680,561,562,563,564,675,676,2853,2854,2853,2854,2853,2854,2853,2854,2853,2854,2853,2854,2853,2854,
2981,2982,2981,2982,2981,2982,2981,2982,2981,2982,2981,2982,2981,2982,2981,2982,2981,2982,807,808,689,690,691,692,803,804,2981,2982,2981,2982,2981,2982,2981,2982,2981,2982,2981,2982,2853,2854,
2853,2854,2853,2854,2853,2854,2853,2854,2853,2854,2853,2854,2853,2854,2853,2854,2853,2854,423,424,817,818,819,820,803,804,2853,2854,2853,2854,2853,2854,2853,2854,2853,2854,2853,2854,2853,2854,
2981,2982,2981,2982,2981,2982,2981,2982,2981,2982,2981,2982,2981,2982,2981,2982,2981,2982,551,552,945,946,947,948,803,804,2981,2982,2981,2982,2981,2982,2981,2982,2981,2982,2981,2982,2853,2854,
2853,2854,2853,2854,2853,2854,2853,2854,2853,2854,2853,2854,2853,2854,2853,2854,2853,2854,679,680,1073,1074,1075,1076,803,804,2853,2854,2853,2854,2853,2854,2853,2854,2853,2854,2853,2854,2853,2854,
2981,2982,2981,2982,2981,2982,2981,2982,2981,2982,2981,2982,2981,2982,2981,2982,2981,2982,423,424,1201,1202,1203,1204,803,804,2981,2982,2981,2982,2981,2982,2981,2982,2981,2982,2981,2982,2853,2854,
2853,2854,2853,2854,2853,2854,2853,2854,2853,2854,2853,2854,2853,2854,2853,2854,2853,2854,551,552,1073,1074,1075,1076,803,804,2853,2854,2853,2854,2853,2854,2853,2854,2853,2854,2853,2854,2853,2854,
2981,2982,2981,2982,2981,2982,2981,2982,2981,2982,2981,2982,2981,2982,2981,2982,2981,2982,679,680,1201,1202,1203,1204,803,804,2981,2982,2981,2982,2981,2982,2981,2982,2981,2982,2981,2982,2853,2854,
2853,2854,2853,2854,2853,2854,2853,2854,2853,2854,2853,2854,2853,2854,2853,2854,2853,2854,807,808,301,302,303,304,803,804,2853,2854,2853,2854,2853,2854,2853,2854,2853,2854,2853,2854,2853,2854,
2981,2982,2981,2982,2981,2982,2981,2982,2981,2982,2981,2982,2981,2982,2981,2982,2981,2982,423,424,429,430,431,432,803,804,2981,2982,2981,2982,2981,2982,2981,2982,2981,2982,2981,2982,2853,2854,
2853,2854,2853,2854,2853,2854,2853,2854,2853,2854,2853,2854,2853,2854,2853,2854,2853,2854,551,552,557,558,559,560,803,804,2853,2854,2853,2854,2853,2854,2853,2854,2853,2854,2853,2854,2853,2854,
2981,2982,2981,2982,2981,2982,2981,2982,2981,2982,2981,2982,2981,2982,2981,2982,2981,2982,679,680,685,686,687,688,803,804,2981,2982,2981,2982,2981,2982,2981,2982,2981,2982,2981,2982,2853,2854,
2853,2854,2853,2854,2853,2854,2853,2854,2853,2854,2853,2854,2853,2854,2853,2854,2853,2854,2595,2596,813,814,815,816,2595,2596,2853,2854,2853,2854,2853,2854,2853,2854,2853,2854,2853,2854,2853,2854,
2981,2982,2981,2982,2981,2982,2981,2982,2981,2982,2981,2982,2981,2982,2981,2982,2981,2982,2723,2724,941,942,943,944,2723,2724,2981,2982,2981,2982,2981,2982,2981,2982,2981,2982,2981,2982,2853,2854,
2853,2854,2853,2854,2853,2854,2853,2854,2853,2854,2853,2854,2853,2854,2853,2854,2853,2854,2853,2854,1069,1070,1071,1072,2853,2854,2853,2854,2853,2854,2853,2854,2853,2854,2853,2854,2853,2854,2853,2854,
2981,2982,2981,2982,2981,2982,2981,2982,2981,2982,2981,2982,2981,2982,2981,2982,2981,2982,2981,2982,1197,1198,1199,1200,2981,2982,2981,2982,2981,2982,2981,2982,2981,2982,2981,2982,2981,2982,2981,2982
</data>
 </layer>
 <layer id="2" name="ground" width="40" height="40">
  <data encoding="csv">
0,0,0,0,0,0,0,0,0,0,0,0,0,0,0,0,0,0,0,0,0,0,0,0,0,0,0,0,0,0,0,0,0,0,0,0,0,0,0,0,
0,0,0,0,0,0,0,0,0,0,0,0,0,0,0,0,0,0,0,0,0,0,0,0,0,0,0,0,0,0,0,0,0,0,0,0,0,0,0,0,
0,0,0,0,0,0,0,0,0,0,0,0,0,0,0,0,0,0,0,0,0,0,0,0,0,0,0,0,0,0,0,0,0,0,0,0,0,0,0,0,
0,0,0,0,0,0,0,0,0,0,0,0,0,0,0,0,0,0,0,0,0,0,0,0,0,0,0,0,0,0,0,0,0,0,0,0,0,0,0,0,
0,0,0,0,0,0,0,0,0,0,0,0,0,0,0,0,0,0,0,0,0,0,0,0,0,0,0,0,0,0,0,0,0,0,0,0,0,0,0,0,
0,0,0,0,0,0,0,0,0,0,0,0,0,0,0,0,0,0,0,0,0,0,0,0,0,0,0,0,0,0,0,0,0,0,0,0,0,0,0,0,
0,0,0,0,0,0,0,0,0,0,0,0,0,0,0,0,0,0,0,0,0,0,0,0,0,0,0,0,0,0,0,0,0,0,0,0,0,0,0,0,
0,0,0,0,0,0,0,0,0,0,0,0,0,0,0,0,0,0,0,0,0,0,0,0,0,0,0,0,0,0,0,0,0,0,0,0,0,0,0,0,
0,0,0,0,0,0,0,0,0,0,0,0,0,0,0,0,0,0,0,0,0,0,0,0,0,0,0,0,0,0,0,0,0,0,0,0,0,0,0,0,
0,0,0,0,0,0,0,0,0,0,0,0,0,0,0,0,0,0,0,0,0,0,0,0,0,0,0,0,0,0,0,0,0,0,0,0,0,0,0,0,
0,0,0,0,0,0,0,0,0,0,0,0,0,0,0,0,0,0,0,0,0,2085,2086,0,0,0,0,0,0,0,0,0,0,0,0,0,0,0,0,0,
0,0,0,0,0,0,0,0,0,0,0,0,0,0,0,0,0,0,0,0,0,2213,2214,0,0,0,0,0,0,0,0,0,0,0,0,0,0,0,0,0,
0,0,0,0,0,0,0,0,0,0,0,0,0,0,0,0,0,0,0,0,0,0,0,0,0,0,0,0,0,0,0,0,0,0,0,0,0,0,0,0,
0,0,0,0,0,0,0,0,0,0,0,0,0,0,0,0,0,0,0,0,0,0,0,0,0,0,0,0,0,0,0,0,0,0,0,0,0,0,0,0,
0,0,0,0,0,0,0,0,0,0,0,0,0,0,0,0,0,0,0,0,0,0,0,0,0,0,0,0,0,0,0,0,0,0,0,0,0,0,0,0,
0,0,0,0,0,0,0,0,0,0,0,0,0,0,0,0,0,0,0,0,0,0,0,0,0,0,0,0,0,0,0,0,0,0,0,0,0,0,0,0,
0,0,0,0,0,0,0,0,0,0,0,0,0,0,0,0,0,0,0,0,0,0,0,0,0,0,0,0,0,0,0,0,0,0,0,0,0,0,0,0,
0,0,0,0,0,0,0,0,0,0,0,0,0,0,0,0,0,0,0,0,0,0,0,0,0,0,0,0,0,0,0,0,0,0,0,0,0,0,0,0,
0,0,0,0,0,0,0,0,0,0,0,0,0,0,0,0,0,0,0,0,0,0,0,0,0,0,0,0,0,0,0,0,0,0,0,0,0,0,0,0,
0,0,0,0,0,0,0,0,0,0,0,0,0,0,0,0,0,0,0,0,0,0,0,0,0,0,0,0,0,0,0,0,0,0,0,0,0,0,0,0,
0,0,0,0,0,0,0,0,0,0,0,0,0,0,0,0,0,0,0,0,0,0,0,0,0,0,0,0,0,0,0,0,0,0,0,0,0,0,0,0,
0,0,0,0,0,0,0,0,0,0,0,0,0,0,0,0,0,0,0,0,0,0,0,0,0,0,0,0,0,0,0,0,0,0,0,0,0,0,0,0,
0,0,0,0,0,0,0,0,0,0,0,0,0,0,0,0,0,0,0,0,0,0,0,0,0,0,0,0,0,0,0,0,0,0,0,0,0,0,0,0,
0,0,0,0,0,0,0,0,0,0,0,0,0,0,0,0,0,0,0,0,0,0,0,0,0,0,0,0,0,0,0,0,0,0,0,0,0,0,0,0,
0,0,0,0,0,0,0,0,0,0,0,0,0,0,0,0,0,0,0,0,0,0,0,0,0,0,0,0,0,0,0,0,0,0,0,0,0,0,0,0,
0,0,0,0,0,0,0,0,0,0,0,0,0,0,0,0,0,0,0,0,0,0,0,0,0,0,0,0,0,0,0,0,0,0,0,0,0,0,0,0,
0,0,0,0,0,0,0,0,0,0,0,0,0,0,0,0,0,0,0,0,0,0,0,0,0,0,0,0,0,0,0,0,0,0,0,0,0,0,0,0,
0,0,0,0,0,0,0,0,0,0,0,0,0,0,0,0,0,0,0,0,0,0,0,0,0,0,0,0,0,0,0,0,0,0,0,0,0,0,0,0,
0,0,0,0,0,0,0,0,0,0,0,0,0,0,0,0,0,0,0,0,0,0,0,0,0,0,0,0,0,0,0,0,0,0,0,0,0,0,0,0,
0,0,0,0,0,0,0,0,0,0,0,0,0,0,0,0,0,0,0,0,0,0,0,0,0,0,0,0,0,0,0,0,0,0,0,0,0,0,0,0,
0,0,0,0,0,0,0,0,0,0,0,0,0,0,0,0,0,0,0,0,0,0,0,0,0,0,0,0,0,0,0,0,0,0,0,0,0,0,0,0,
0,0,0,0,0,0,0,0,0,0,0,0,0,0,0,0,0,0,0,0,0,0,0,0,0,0,0,0,0,0,0,0,0,0,0,0,0,0,0,0,
0,0,0,0,0,0,0,0,0,0,0,0,0,0,0,0,0,0,0,0,0,0,0,0,0,0,0,0,0,0,0,0,0,0,0,0,0,0,0,0,
0,0,0,0,0,0,0,0,0,0,0,0,0,0,0,0,0,0,0,0,0,0,0,0,0,0,0,0,0,0,0,0,0,0,0,0,0,0,0,0,
0,0,0,0,0,0,0,0,0,0,0,0,0,0,0,0,0,0,2597,2598,0,0,0,0,2597,2598,0,0,0,0,0,0,0,0,0,0,0,0,0,0,
0,0,0,0,0,0,0,0,0,0,0,0,0,0,0,0,0,0,2725,2726,0,0,0,0,2725,2726,0,0,0,0,0,0,0,0,0,0,0,0,0,0,
0,0,0,0,0,0,0,0,0,0,0,0,0,0,0,0,0,0,0,0,0,0,0,0,0,0,0,0,0,0,0,0,0,0,0,0,0,0,0,0,
0,0,0,0,0,0,0,0,0,0,0,0,0,0,0,0,0,0,0,0,0,0,0,0,0,0,0,0,0,0,0,0,0,0,0,0,0,0,0,0,
0,0,0,0,0,0,0,0,0,0,0,0,0,0,0,0,0,0,0,0,0,0,0,0,0,0,0,0,0,0,0,0,0,0,0,0,0,0,0,0,
0,0,0,0,0,0,0,0,0,0,0,0,0,0,0,0,0,0,0,0,0,0,0,0,0,0,0,0,0,0,0,0,0,0,0,0,0,0,0,0
</data>
 </layer>
 <objectgroup id="3" name="wall">
  <object id="2" x="144" y="40" width="64" height="16"/>
  <object id="3" x="208" y="56" width="16" height="16"/>
  <object id="4" x="128" y="56" width="16" height="16"/>
  <object id="6" x="112" y="72" width="16" height="16"/>
  <object id="7" x="96" y="88" width="16" height="56"/>
  <object id="8" x="112" y="144" width="16" height="16"/>
  <object id="9" x="128" y="160" width="16" height="160"/>
  <object id="10" x="208" y="160" width="16" height="160"/>
  <object id="11" x="224" y="144" width="16" height="16"/>
  <object id="12" x="240" y="88" width="16" height="56"/>
  <object id="13" x="224" y="72" width="16" height="16"/>
  <object id="14" x="168" y="80" width="16" height="8"/>
  <object id="15" x="192" y="272" width="16" height="48"/>
  <object id="16" x="144" y="272" width="16" height="48"/>
 </objectgroup>
 <objectgroup id="4" name="trigger">
  <object id="20" name="toHometownTrigger" x="160" y="312" width="32" height="8"/>
 </objectgroup>
</map>
