<?xml version="1.0" encoding="UTF-8"?>
<map version="1.10" tiledversion="1.12.0" orientation="orthogonal" renderorder="right-down" width="40" height="40" tilewidth="8" tileheight="8" infinite="0" nextlayerid="4" nextobjectid="1">
 <tileset firstgid="1" name="gb-tileset-color" tilewidth="8" tileheight="8" tilecount="16384" columns="128">
  <image source="../art/gb-tileset-color.png" width="1024" height="1024"/>
 </tileset>
 <layer id="1" name="base" width="40" height="40">
  <data encoding="csv">
301,302,303,304,305,306,307,308,301,302,303,304,305,306,307,308,301,302,303,304,305,306,301,302,303,304,305,306,301,429,429,301,301,302,303,304,305,306,307,308,
429,430,431,432,433,434,435,436,429,430,431,432,433,434,301,302,303,304,305,306,307,301,429,301,301,301,301,301,429,557,557,429,301,302,303,304,305,306,307,308,
557,558,559,560,561,562,563,301,302,303,304,305,306,307,308,308,308,308,308,301,302,303,304,305,306,307,308,429,557,685,301,301,302,303,304,305,306,307,308,308,
685,686,687,301,302,303,304,305,306,307,308,307,308,308,436,436,436,436,436,429,430,431,432,433,434,435,436,557,685,301,302,429,430,431,432,433,434,435,436,436,
813,814,815,429,430,431,432,433,434,435,436,308,436,436,564,564,564,564,564,557,558,559,560,561,562,563,564,685,813,301,302,557,558,559,560,561,562,563,564,564,
941,301,302,557,558,559,560,561,562,563,564,436,564,564,692,692,692,692,692,685,686,687,688,689,690,691,692,813,941,301,302,685,686,687,688,689,690,691,692,692,
301,302,303,685,686,687,688,689,690,691,692,564,692,692,820,820,820,820,820,813,814,815,816,817,818,819,820,941,301,302,303,813,814,815,816,817,818,819,820,302,
301,302,303,813,814,815,816,817,818,819,820,692,820,820,948,948,948,948,948,941,942,943,944,945,946,947,948,1069,301,302,303,941,942,943,944,945,946,947,948,430,
302,303,304,941,942,943,944,945,946,947,948,304,305,306,307,308,1076,1076,1076,1069,1070,1071,1072,1073,1074,1075,1076,301,301,301,301,1069,1070,1071,1072,1073,1074,1075,1076,558,
302,303,304,1069,1070,1071,1072,1073,1074,1075,1076,432,433,434,435,436,1204,1204,1204,1197,1198,1199,1200,1201,1202,1203,1204,429,429,429,429,1197,1198,1199,1200,1201,1202,1203,1204,686,
302,303,304,1197,1198,1199,1200,1201,1202,1203,1204,560,561,562,563,564,305,306,307,301,302,303,304,305,306,307,308,557,557,557,557,557,685,685,685,685,685,813,813,814,
301,301,301,301,301,429,429,429,685,686,687,688,689,690,691,692,301,301,301,429,430,431,432,433,434,435,301,302,303,304,305,306,307,308,813,813,813,941,941,942,
429,429,429,429,429,557,557,557,813,814,815,816,817,818,819,820,429,429,301,557,558,559,560,561,562,563,429,430,431,432,433,434,435,436,941,941,941,1069,1069,1070,
557,557,557,557,557,685,685,685,941,942,943,944,945,946,947,948,301,301,429,685,686,687,688,689,690,301,557,558,559,560,561,562,563,564,1069,1069,1069,1197,1197,1198,
685,685,301,302,303,304,305,306,307,308,1071,1072,1073,1074,1075,1076,302,303,304,305,306,307,308,306,307,301,685,686,687,688,689,690,691,692,1197,1197,1197,1198,1199,1200,
813,813,429,430,431,432,433,434,435,436,1199,1200,1201,1202,1203,1204,430,431,432,433,434,435,436,306,301,302,813,814,815,816,817,818,819,820,1200,1201,1202,1203,1204,948,
941,941,557,558,559,560,561,562,563,564,1069,1069,301,429,429,557,558,559,560,561,562,563,564,306,301,302,941,942,943,944,945,946,947,948,308,436,692,820,948,1076,
1069,1069,685,686,687,688,689,690,691,692,1197,301,429,557,557,685,686,687,688,689,690,691,692,301,302,303,1069,1070,1071,1072,1073,1074,1075,1076,436,564,820,948,1076,1204,
1197,1197,813,814,815,816,817,818,819,820,301,429,557,685,685,813,814,815,816,817,818,819,820,301,302,303,1197,1198,1199,1200,1201,1202,1203,1204,304,305,306,307,308,1198,
1198,1199,941,942,943,944,945,946,947,948,429,557,685,813,301,941,942,943,944,945,946,947,948,307,308,303,304,305,306,307,308,564,820,431,432,433,434,435,436,308,
1199,1200,1069,1070,1071,1072,1073,1074,1075,1076,557,685,301,301,429,1069,1070,1071,1072,1073,1074,1075,1076,435,436,308,304,305,306,307,308,692,948,559,560,561,562,563,564,436,
1200,1201,1197,1198,1199,1200,1201,1202,1203,1204,685,813,429,429,557,1197,1198,1199,1200,1201,1202,1203,1204,563,564,436,304,305,306,307,308,820,1076,687,688,689,690,691,692,564,
1201,1202,1203,1204,436,304,305,306,307,685,813,941,557,557,685,685,685,685,686,687,688,689,690,691,692,564,308,308,308,307,308,948,1204,815,816,817,818,819,820,692,
1201,1202,1203,1204,301,302,303,304,305,306,307,308,685,685,813,813,813,813,814,815,816,817,818,819,820,692,436,436,436,307,308,1076,942,943,944,945,946,947,948,820,
1201,1202,1203,1204,429,430,431,432,433,434,435,436,813,813,941,941,941,941,942,943,944,945,946,947,948,820,564,564,564,435,436,1204,1070,1071,1072,1073,1074,1075,1076,948,
1201,1202,1203,1204,557,558,559,560,561,562,563,564,941,941,1069,1069,1069,1069,1070,1071,1072,1073,1074,1075,1076,948,692,692,692,563,564,1197,1198,1199,1200,1201,1202,1203,1204,1076,
1201,1202,1203,1204,685,686,687,688,689,690,691,692,1069,1069,1197,1197,1197,1197,1198,1199,1200,1201,1202,1203,1204,1076,820,820,820,691,692,1198,1199,1200,1201,1202,1203,1204,1204,1204,
1201,1202,1203,1204,813,814,815,816,817,818,819,820,1197,1197,301,302,303,304,305,306,307,308,1202,1203,1204,1204,948,948,948,819,820,1076,948,820,557,685,941,1197,1198,1199,
1200,1201,1202,1203,941,942,943,944,945,946,947,948,1197,1198,429,430,431,432,433,434,435,436,1201,1202,1203,1204,1076,1076,1076,947,948,1204,1076,948,685,813,1069,1197,1198,1199,
1200,1201,1202,1203,1069,301,302,303,304,305,306,307,308,1201,557,558,559,560,561,562,563,564,1201,1202,1203,1204,301,302,303,304,305,306,307,308,813,941,1197,1198,1199,1200,
1200,1201,1202,1203,1197,429,430,431,432,433,434,435,436,1201,685,686,687,688,689,690,691,692,436,1197,1198,1199,429,430,431,432,433,434,435,436,304,305,306,307,308,1200,
1200,1201,1202,1203,1204,557,558,559,560,561,562,563,564,1201,813,814,815,816,817,818,819,820,564,564,436,436,557,558,559,560,561,562,563,564,301,302,303,304,305,306,
1200,1201,1202,1203,1204,685,686,687,688,689,690,691,692,1200,941,942,943,944,945,946,947,948,692,692,564,564,685,686,687,688,689,690,691,692,429,301,301,302,303,304,
1199,1200,1201,1202,1203,813,814,815,816,817,818,819,820,1199,1069,1070,1071,1072,1073,1074,1075,1076,820,820,692,692,813,814,815,816,817,818,819,820,557,429,301,302,303,304,
1199,1200,1201,1202,1203,941,942,943,944,945,946,947,948,1198,1197,1198,1199,1200,1201,1202,1203,1204,948,948,820,820,941,942,943,944,945,946,947,948,685,301,302,303,304,305,
1199,1200,1201,1202,1203,1069,1070,1071,1072,1073,1074,1075,1076,1197,1198,1199,1200,1201,1202,1203,1204,1204,1076,1076,948,948,1069,1070,1071,1072,1073,1074,1075,1076,813,301,302,303,304,305,
1198,1199,1200,1201,1202,1197,1198,1199,1200,1201,1202,1203,1204,948,820,1197,1198,1199,1200,1201,1202,1203,1204,1204,1076,1076,1197,1198,1199,1200,1201,1202,1203,1204,308,308,308,308,305,306,
1198,1199,1200,1201,1202,1203,1204,820,1204,1204,1204,1076,1076,1076,948,948,1197,1198,1199,1200,1201,1202,1203,1204,1204,1204,1204,1204,436,436,564,820,564,564,436,436,436,436,308,308,
1198,1199,1200,1201,1202,1203,1204,948,1201,1202,1203,1204,1204,1204,1076,1076,948,820,692,692,564,436,308,308,308,308,436,436,564,564,692,948,692,692,564,564,564,564,436,436,
1198,1199,1200,1201,1202,1203,1204,1076,1198,1199,1200,1201,1202,1203,1204,1204,1076,948,820,820,692,564,436,436,436,436,564,564,692,692,820,1076,820,820,692,692,692,692,564,564
</data>
 </layer>
 <layer id="3" name="ground" width="40" height="40">
  <data encoding="csv">
0,0,0,0,0,0,0,0,0,0,0,0,0,0,0,0,0,0,0,0,0,0,0,0,0,0,0,0,0,0,0,0,0,0,0,0,0,0,0,0,
0,0,0,0,0,0,0,0,0,0,0,0,0,0,0,0,0,0,0,0,0,0,0,0,0,0,0,0,0,0,0,0,0,0,0,0,0,0,0,0,
0,0,0,0,0,0,0,0,0,0,0,0,0,0,0,0,0,0,0,0,0,0,0,0,0,0,0,0,0,0,0,0,0,0,0,0,0,0,0,0,
0,0,0,0,0,0,0,0,0,0,0,0,0,0,0,0,0,0,0,0,0,0,0,0,0,0,0,0,0,0,0,0,0,0,0,0,0,0,0,0,
0,0,0,0,0,0,0,0,0,0,0,0,0,0,0,0,0,0,0,0,0,0,0,0,0,0,0,0,0,0,0,0,0,0,0,0,0,0,0,0,
0,0,0,0,0,0,0,0,0,0,0,0,0,0,0,0,0,0,0,0,0,0,0,0,0,0,0,0,0,0,0,0,0,0,0,0,0,0,0,0,
0,0,0,0,0,0,0,0,0,0,0,0,0,0,0,0,0,0,0,0,0,0,0,0,0,0,0,0,0,0,0,0,0,0,0,0,0,0,0,0,
0,0,0,0,0,0,0,0,0,0,0,0,0,0,0,0,0,0,0,0,0,0,0,0,0,0,0,0,0,0,0,0,0,0,0,0,0,0,0,0,
0,0,0,0,0,0,0,0,0,0,0,0,0,0,0,0,0,0,0,0,0,0,0,0,0,0,0,0,0,0,0,0,0,0,0,0,0,0,0,0,
0,0,0,0,0,0,0,0,0,0,0,0,0,0,0,0,0,0,0,0,0,0,0,0,0,0,0,0,0,0,0,0,0,0,0,0,0,0,0,0,
0,0,0,0,0,0,0,0,0,0,0,0,0,0,0,0,0,0,0,0,0,0,0,0,0,0,0,0,0,0,0,0,0,0,0,0,0,0,0,0,
0,0,0,0,0,0,0,0,0,0,0,0,0,0,0,0,0,0,0,0,0,0,0,0,0,0,0,0,0,0,0,0,0,0,0,0,0,0,0,0,
0,0,0,0,0,0,0,0,0,0,0,0,0,0,0,0,0,0,0,0,0,0,0,0,0,0,0,0,0,0,0,0,0,0,0,0,0,0,0,0,
0,0,0,0,0,0,0,0,0,0,0,0,0,0,0,0,0,0,0,0,0,0,0,0,0,0,0,0,0,0,0,0,0,0,0,0,0,0,0,0,
0,0,0,0,0,0,0,0,0,0,0,0,0,0,0,0,0,0,0,0,0,0,0,0,0,0,0,0,0,0,0,0,0,0,0,0,0,0,0,0,
0,0,0,0,0,0,0,0,0,0,0,0,0,0,0,0,0,0,0,0,0,0,0,0,0,0,0,0,0,0,0,0,0,0,0,0,0,0,0,0,
0,0,0,0,0,0,0,0,0,0,0,0,0,0,0,0,0,0,0,0,0,0,0,0,0,0,0,0,0,0,0,0,0,0,0,0,0,0,0,0,
0,0,0,0,0,0,0,0,0,0,0,0,0,0,0,0,0,0,0,0,0,0,0,0,0,0,0,0,0,0,0,0,0,0,0,0,0,0,0,0,
0,0,0,0,0,0,0,0,0,0,0,0,0,0,0,0,0,0,0,0,0,0,0,0,0,0,0,0,0,0,0,0,0,0,0,0,0,0,0,0,
0,0,0,0,0,0,0,0,0,0,0,0,0,0,0,0,0,0,0,0,0,0,0,0,0,0,0,0,0,0,0,0,0,0,0,0,0,0,0,0,
0,0,0,0,0,0,0,0,0,0,0,0,0,0,0,0,0,0,0,0,0,0,0,0,0,0,0,0,0,0,0,0,0,0,0,0,0,0,0,0,
0,0,0,0,0,0,0,0,0,0,0,0,0,0,0,0,0,0,0,0,0,0,0,0,0,0,0,0,0,0,0,0,0,0,0,0,0,0,0,0,
0,0,0,0,0,0,0,0,0,0,0,0,0,0,0,0,0,0,0,0,0,0,0,0,0,0,0,0,0,0,0,0,0,0,0,0,0,0,0,0,
0,0,0,0,0,0,0,0,0,0,0,0,0,0,0,0,0,0,0,0,0,0,0,0,0,0,0,0,0,0,0,0,0,0,0,0,0,0,0,0,
0,0,0,0,0,0,0,0,0,0,0,0,0,0,0,0,0,0,0,0,0,0,0,0,0,0,0,0,0,0,0,0,0,0,0,0,0,0,0,0,
0,0,0,0,0,0,0,0,0,0,0,0,0,0,0,0,0,0,0,0,0,0,0,0,0,0,0,0,0,0,0,0,0,0,0,0,0,0,0,0,
0,0,0,0,0,0,0,0,0,0,0,0,0,0,0,0,0,0,0,0,0,0,0,0,0,0,0,0,0,0,0,0,0,0,0,0,0,0,0,0,
0,0,0,0,0,0,0,0,0,0,0,0,0,0,0,0,0,0,0,0,0,0,0,0,0,0,0,0,0,0,0,0,0,0,0,0,0,0,0,0,
0,0,0,0,0,0,0,0,0,0,0,0,0,0,0,0,0,0,0,0,0,0,0,0,0,0,0,0,0,0,0,0,0,0,0,0,0,0,0,0,
0,0,0,0,0,0,0,0,0,0,0,0,0,0,0,0,0,0,0,0,0,0,0,0,0,0,0,0,0,0,0,0,0,0,0,0,0,0,0,0,
0,0,0,0,0,0,0,0,0,0,0,0,0,0,0,0,0,0,0,0,0,0,0,0,0,0,0,0,0,0,0,0,0,0,0,0,0,0,0,0,
0,0,0,0,0,0,0,0,0,0,0,0,0,0,0,0,0,0,0,0,0,0,0,0,0,0,0,0,0,0,0,0,0,0,0,0,0,0,0,0,
0,0,0,0,0,0,0,0,0,0,0,0,0,0,0,0,0,0,0,0,0,0,0,0,0,0,0,0,0,0,0,0,0,0,0,0,0,0,0,0,
0,0,0,0,0,0,0,0,0,0,0,0,0,0,0,0,0,0,0,0,0,0,0,0,0,0,0,0,0,0,0,0,0,0,0,0,0,0,0,0,
0,0,0,0,0,0,0,0,0,0,0,0,0,0,0,0,0,0,0,0,0,0,0,0,0,0,0,0,0,0,0,0,0,0,0,0,0,0,0,0,
0,0,0,0,0,0,0,0,0,0,0,0,0,0,0,0,0,0,0,0,0,0,0,0,0,0,0,0,0,0,0,0,0,0,0,0,0,0,0,0,
0,0,0,0,0,0,0,0,0,0,0,0,0,0,0,0,0,0,0,0,0,0,0,0,0,0,0,0,0,0,0,0,0,0,0,0,0,0,0,0,
0,0,0,0,0,0,0,0,0,0,0,0,0,0,0,0,0,0,0,0,0,0,0,0,0,0,0,0,0,0,0,0,0,0,0,0,0,0,0,0,
0,0,0,0,0,0,0,0,0,0,0,0,0,0,0,0,0,0,0,0,0,0,0,0,0,0,0,0,0,0,0,0,0,0,0,0,0,0,0,0,
0,0,0,0,0,0,0,0,0,0,0,0,0,0,0,0,0,0,0,0,0,0,0,0,0,0,0,0,0,0,0,0,0,0,0,0,0,0,0,0
</data>
 </layer>
</map>
